meat/img/map-marker.svg

<svg width="44" height="70" viewBox="0 0 44 70" fill="none" xmlns="http://www.w3.org/2000/svg">
<path d="M22 0C9.8472 0 0 9.75797 0 21.8449C0 42.7442 22 70 22 70C22 70 44 42.7398 44 21.8449C44 9.76235 34.1528 0 22 0ZM22 33.9318C18.8492 33.9318 15.8275 32.6865 13.5996 30.4699C11.3716 28.2532 10.12 25.2468 10.12 22.1119C10.12 18.9771 11.3716 15.9707 13.5996 13.754C15.8275 11.5374 18.8492 10.2921 22 10.2921C25.1508 10.2921 28.1725 11.5374 30.4004 13.754C32.6284 15.9707 33.88 18.9771 33.88 22.1119C33.88 25.2468 32.6284 28.2532 30.4004 30.4699C28.1725 32.6865 25.1508 33.9318 22 33.9318Z" fill="#ED3F5E"/>
</svg>

<svg width="44" height="70" fill="none" xmlns="http://www.w3.org/2000/svg"><path d="M22 0C9.847 0 0 9.758 0 21.845 0 42.745 22 70 22 70s22-27.26 22-48.155C44 9.762 34.153 0 22 0zm0 33.932a11.91 11.91 0 0 1-8.4-3.462 11.79 11.79 0 0 1-3.48-8.358 11.79 11.79 0 0 1 3.48-8.358 11.91 11.91 0 0 1 8.4-3.462 11.91 11.91 0 0 1 8.4 3.462 11.79 11.79 0 0 1 3.48 8.358 11.79 11.79 0 0 1-3.48 8.358 11.91 11.91 0 0 1-8.4 3.462z" fill="#ED3F5E"/></svg>
